X:14384
T:Rocky Road to Dublin
M:9/8
L:1/8
K:A Dorian
efe d2B A3|E2A A2A Bcd|efe d2B A2c|B2G G2A Bcd:|!
e2a a2f g3|e2a a2A Bcd|e2a a2f g2e|d2B G2A Bcd|!
e2a a2f g3|e2a a2A Bcd|efg fga gfe|d2B G2A Bcd|]!
ecA ecA A3|ecA ecA Bcd|ecA ecA A2c|d2B G2A Bcd|!
ecA ecA A3|ecA ecA Bcd|efg fga gfe|d2B G2A Bcd|]!
